X:724
T:The leg of the duck
R:Jig
O:Ireland
B:Henderson's collection, MacLeod's Collection
P:APB Martin Hayes
S:Martin Hayes Concert- Santa Cruz 1999
Z:Transcription, chords:Mike Long
M:6/8
L:1/8
K:D
"D"A2d cAG|"A"~F3 GEC|"G"DCD EFE|DFD EFG|\
"D"A2d cAG|"A"~F3 GEC|"G"DCD EFE|"(D)"DFD D (3(EFG):|
|:"D"A2F GFE|"A"FEF GEC|"G"DCD EFE|DFD EFG|\
"D"A2F GFE|"A"FEF GEC|"G"DCD EFE|"(D)"DFD D (3(EFG):|
